icons/midnadark/actions/24/umbrello_diagram_entityrelationship.svg

<svg xmlns="http://www.w3.org/2000/svg" viewBox="0 0 22 22"><path d="m432.71429 538.79071a2 2 0 0 0 -2 2v2h-1v3h6v-3h-1v-2a2 2 0 0 0 -2 -2m0 1a1 1 0 0 1 1 1v2h-2v-2a1 1 0 0 1 1 -1" color="#f2f2f2" transform="translate(-416.71-526.79)"/><g fill="#f2f2f2"><path d="m4 3v14h3v-1h-2v-12h10v1h1v-2h-12"/><path d="m6 5v14h6v-1h-5v-12h10v5h1v-6h-12"/></g></svg>

<?xml version="1.0" encoding="UTF-8" standalone="no"?>
<!-- Created with Inkscape (http://www.inkscape.org/) -->

<svg
   xmlns:dc="http://purl.org/dc/elements/1.1/"
   xmlns:cc="http://creativecommons.org/ns#"
   xmlns:rdf="http://www.w3.org/1999/02/22-rdf-syntax-ns#"
   xmlns:svg="http://www.w3.org/2000/svg"
   xmlns="http://www.w3.org/2000/svg"
   xmlns:sodipodi="http://sodipodi.sourceforge.net/DTD/sodipodi-0.dtd"
   xmlns:inkscape="http://www.inkscape.org/namespaces/inkscape"
   width="22"
   height="22"
   id="svg2"
   version="1.1"
   inkscape:version="0.91 r13725"
   viewBox="0 0 22 22"
   sodipodi:docname="edit-clone.svg">
  <defs
     id="defs4">
    <style
       type="text/css"
       id="current-color-scheme">
      .ColorScheme-Text {
        color:#f2f2f2;
      }
      .ColorScheme-Background {
        color:#eff0f1;
      }
      .ColorScheme-Highlight {
        color:#3daee9;
      }
      .ColorScheme-ViewText {
        color:#31363b;
      }
      .ColorScheme-ViewBackground {
        color:#fcfcfc;
      }
      .ColorScheme-ViewHover {
        color:#93cee9;
      }
      .ColorScheme-ViewFocus{
        color:#3daee9;
      }
      .ColorScheme-ButtonText {
        color:#31363b;
      }
      .ColorScheme-ButtonBackground {
        color:#eff0f1;
      }
      .ColorScheme-ButtonHover {
        color:#93cee9;
      }
      .ColorScheme-ButtonFocus{
        color:#3daee9;
      }
      </style>
    <style
       id="current-color-scheme-7"
       type="text/css">
      .ColorScheme-Text {
        color:#f2f2f2;
      }
      .ColorScheme-Background {
        color:#eff0f1;
      }
      .ColorScheme-Highlight {
        color:#3daee9;
      }
      .ColorScheme-ViewText {
        color:#31363b;
      }
      .ColorScheme-ViewBackground {
        color:#fcfcfc;
      }
      .ColorScheme-ViewHover {
        color:#93cee9;
      }
      .ColorScheme-ViewFocus{
        color:#3daee9;
      }
      .ColorScheme-ButtonText {
        color:#31363b;
      }
      .ColorScheme-ButtonBackground {
        color:#eff0f1;
      }
      .ColorScheme-ButtonHover {
        color:#93cee9;
      }
      .ColorScheme-ButtonFocus{
        color:#3daee9;
      }
      </style>
    <style
       id="current-color-scheme-5"
       type="text/css">
      .ColorScheme-Text {
        color:#f2f2f2;
      }
      .ColorScheme-Background {
        color:#eff0f1;
      }
      .ColorScheme-Highlight {
        color:#3daee9;
      }
      .ColorScheme-ViewText {
        color:#31363b;
      }
      .ColorScheme-ViewBackground {
        color:#fcfcfc;
      }
      .ColorScheme-ViewHover {
        color:#93cee9;
      }
      .ColorScheme-ViewFocus{
        color:#3daee9;
      }
      .ColorScheme-ButtonText {
        color:#31363b;
      }
      .ColorScheme-ButtonBackground {
        color:#eff0f1;
      }
      .ColorScheme-ButtonHover {
        color:#93cee9;
      }
      .ColorScheme-ButtonFocus{
        color:#3daee9;
      }
      </style>
  </defs>
  <sodipodi:namedview
     id="base"
     pagecolor="#ffffff"
     bordercolor="#666666"
     borderopacity="1.0"
     inkscape:pageopacity="0.0"
     inkscape:pageshadow="2"
     inkscape:zoom="23"
     inkscape:cx="2.5365137"
     inkscape:cy="12.02454"
     inkscape:document-units="px"
     inkscape:current-layer="layer1"
     showgrid="true"
     inkscape:showpageshadow="false"
     borderlayer="true"
     units="px"
     inkscape:window-width="1920"
     inkscape:window-height="1017"
     inkscape:window-x="0"
     inkscape:window-y="0"
     inkscape:window-maximized="1"
     inkscape:snap-bbox="true"
     showguides="true"
     inkscape:object-nodes="true">
    <inkscape:grid
       type="xygrid"
       id="grid4062" />
    <sodipodi:guide
       position="0,22.000017"
       orientation="22,0"
       id="guide3338" />
    <sodipodi:guide
       position="0,1.7382813e-05"
       orientation="0,22"
       id="guide3340" />
    <sodipodi:guide
       position="22,1.7382813e-05"
       orientation="-22,0"
       id="guide3342" />
    <sodipodi:guide
       position="22,22.000017"
       orientation="0,-22"
       id="guide3344" />
    <sodipodi:guide
       position="3,19.000017"
       orientation="16,0"
       id="guide3348" />
    <sodipodi:guide
       position="3,3.0000174"
       orientation="0,16"
       id="guide3350" />
    <sodipodi:guide
       position="19,3.0000174"
       orientation="-16,0"
       id="guide3352" />
    <sodipodi:guide
       position="19,19.000017"
       orientation="0,-16"
       id="guide3354" />
  </sodipodi:namedview>
  <metadata
     id="metadata7">
    <rdf:RDF>
      <cc:Work
         rdf:about="">
        <dc:format>image/svg+xml</dc:format>
        <dc:type
           rdf:resource="http://purl.org/dc/dcmitype/StillImage" />
        <dc:title></dc:title>
      </cc:Work>
    </rdf:RDF>
  </metadata>
  <g
     inkscape:label="Capa 1"
     inkscape:groupmode="layer"
     id="layer1"
     transform="translate(0,-1030.3622)">
    <g
       transform="translate(-416.71429,503.57149)"
       id="layer1-6"
       inkscape:label="Capa 1">
      <path
         class="ColorScheme-Text"
         inkscape:connector-curvature="0"
         id="path4145"
         d="m 432.71429,538.79071 a 2,2 0 0 0 -2,2 l 0,2 -1,0 0,3 6,0 0,-3 -1,0 0,-2 a 2,2 0 0 0 -2,-2 z m 0,1 a 1,1 0 0 1 1,1 l 0,2 -2,0 0,-2 a 1,1 0 0 1 1,-1 z"
         style="color:#f2f2f2;opacity:1;fill:currentColor;fill-opacity:1;stroke:none;stroke-width:1;stroke-linecap:round;stroke-miterlimit:4;stroke-dasharray:none;stroke-opacity:1" />
    </g>
    <path
       style="fill:#f2f2f2;fill-opacity:1;stroke:none;stroke-width:2;stroke-linecap:square;stroke-miterlimit:4;stroke-dasharray:none;stroke-opacity:1"
       d="M 4 3 L 4 17 L 7 17 L 7 16 L 5 16 L 5 4 L 15 4 L 15 5 L 16 5 L 16 3 L 4 3 z "
       transform="translate(0,1030.3622)"
       id="rect4188" />
    <path
       style="fill:#f2f2f2;fill-opacity:1;stroke:none;stroke-width:2;stroke-linecap:square;stroke-miterlimit:4;stroke-dasharray:none;stroke-opacity:1"
       d="M 6 5 L 6 19 L 12 19 L 12 18 L 7 18 L 7 6 L 17 6 L 17 11 L 18 11 L 18 5 L 6 5 z "
       transform="translate(0,1030.3622)"
       id="rect4188-9" />
  </g>
</svg>
